src/assets/anj.svg

<svg width="15" height="17" viewBox="0 0 15 17" fill="none" xmlns="http://www.w3.org/2000/svg">
<path fill-rule="evenodd" clip-rule="evenodd" d="M7.69012 16.7287C8.36818 16.3301 13.6024 13.2534 14.3798 12.7964L14.3801 10.1747C13.5552 10.6596 8.5149 13.6223 7.69043 14.1069C7.04522 13.7278 3.87774 11.8664 3.22992 11.4857L3.23023 8.86397C4.08432 8.36198 6.83758 6.74358 7.6903 6.24236C10.4313 7.85447 9.40422 7.25064 12.1498 8.8641L12.1501 6.2424C11.5049 5.86324 8.33746 4.00189 7.68964 3.62115C6.97473 4.04139 1.69456 7.14512 1 7.55336C1.00084 10.7754 1.00075 9.58688 1.0004 12.7963C6.15922 15.8279 2.55218 13.7093 7.69012 16.7287Z" fill="url(#paint0_linear)"/>
<path fill-rule="evenodd" clip-rule="evenodd" d="M7.69013 16.7286C8.36818 16.3301 13.6024 13.2533 14.3798 12.7964L14.3801 10.1746C13.5552 10.6595 8.5149 13.6223 7.69043 14.1069C7.04522 13.7277 3.87774 11.8663 3.22992 11.4856L3.23023 8.8639C4.08432 8.36192 6.83758 6.74352 7.6903 6.2423C10.4313 7.8544 9.40422 7.25058 12.1498 8.86404L12.1501 6.24234C11.5049 5.86318 8.33746 4.00183 7.68964 3.62109C6.97473 4.04133 1.69456 7.14506 1 7.5533C1.00084 10.7754 1.00075 9.58682 1.0004 12.7962C6.15922 15.8278 2.55218 13.7093 7.69013 16.7286Z" stroke="white" stroke-width="0.5" stroke-linecap="round" stroke-linejoin="round"/>
<path fill-rule="evenodd" clip-rule="evenodd" d="M7.68964 3.6217C8.33485 4.00086 11.5023 5.86226 12.1501 6.24295L12.1498 8.86465C7.56975 11.5569 12.2712 8.79333 7.68977 11.4863C4.94944 9.87455 5.96036 10.4689 3.23023 8.86451L3.22992 11.4863C3.87518 11.8654 7.04262 13.7268 7.69043 14.1075C8.51504 13.6228 13.5556 10.6599 14.3801 10.1753C14.3792 6.95323 14.3793 8.14173 14.3797 4.93239C9.17874 1.87603 12.7947 3.99983 7.68995 1C3.11542 3.68893 4.81261 2.69129 1.00031 4.93221L1 7.55391C1.68834 7.14931 7.02827 4.01048 7.68964 3.6217Z" fill="url(#paint1_linear)"/>
<path fill-rule="evenodd" clip-rule="evenodd" d="M7.68964 3.6217C8.33485 4.00086 11.5023 5.86226 12.1501 6.24295L12.1498 8.86465C7.56975 11.5569 12.2712 8.79333 7.68977 11.4863C4.94944 9.87455 5.96036 10.4689 3.23023 8.86451L3.22992 11.4863C3.87518 11.8654 7.04262 13.7268 7.69043 14.1075C8.51504 13.6228 13.5556 10.6599 14.3801 10.1752C14.3792 6.95323 14.3793 8.14173 14.3797 4.93239C9.17874 1.87603 12.7947 3.99983 7.68995 1C3.11542 3.68893 4.81261 2.69129 1.00031 4.93221L1 7.55391C1.68834 7.14931 7.02827 4.01048 7.68964 3.6217Z" stroke="white" stroke-width="0.5" stroke-linecap="round" stroke-linejoin="round"/>
<defs>
<linearGradient id="paint0_linear" x1="13.1048" y1="6.1311" x2="2.51578" y2="15.8673" gradientUnits="userSpaceOnUse">
<stop stop-color="#FF8989"/>
<stop offset="1" stop-color="#FFB170"/>
</linearGradient>
<linearGradient id="paint1_linear" x1="13.1048" y1="3.50994" x2="2.51581" y2="13.2461" gradientUnits="userSpaceOnUse">
<stop stop-color="#FF8989"/>
<stop offset="1" stop-color="#FFB170"/>
</linearGradient>
</defs>
</svg>

<svg width="15" height="17" fill="none" xmlns="http://www.w3.org/2000/svg"><path fill-rule="evenodd" clip-rule="evenodd" d="M7.69 16.729l6.69-3.933v-2.621l-6.69 3.932-4.46-2.621V8.864l4.46-2.622c2.741 1.612 1.714 1.009 4.46 2.622V6.242l-4.46-2.62L1 7.552v5.243c5.16 3.032 1.552.913 6.69 3.933z" fill="url(#paint0_linear)"/><path clip-rule="evenodd" d="M7.69 16.729l6.69-3.933v-2.621l-6.69 3.932-4.46-2.621V8.864l4.46-2.622c2.741 1.612 1.714 1.009 4.46 2.622V6.242l-4.46-2.62L1 7.552v5.243c5.16 3.032 1.552.913 6.69 3.933z" stroke="#fff" stroke-width=".5" stroke-linecap="round" stroke-linejoin="round"/><path fill-rule="evenodd" clip-rule="evenodd" d="M7.69 3.622l4.46 2.621v2.622l-4.46 2.621-4.46-2.621v2.621l4.46 2.621 6.69-3.932V4.932L7.69 1 1 4.932v2.622l6.69-3.932z" fill="url(#paint1_linear)"/><path clip-rule="evenodd" d="M7.69 3.622l4.46 2.621v2.622l-4.46 2.621-4.46-2.621v2.621l4.46 2.621 6.69-3.932V4.932L7.69 1 1 4.932v2.622l6.69-3.932z" stroke="#fff" stroke-width=".5" stroke-linecap="round" stroke-linejoin="round"/><defs><linearGradient id="paint0_linear" x1="13.105" y1="6.131" x2="2.516" y2="15.867" gradientUnits="userSpaceOnUse"><stop stop-color="#FF8989"/><stop offset="1" stop-color="#FFB170"/></linearGradient><linearGradient id="paint1_linear" x1="13.105" y1="3.51" x2="2.516" y2="13.246" gradientUnits="userSpaceOnUse"><stop stop-color="#FF8989"/><stop offset="1" stop-color="#FFB170"/></linearGradient></defs></svg>
